X: 1
T:Within a Mile of Dublin
M:6/8
L:1/8
Q:80
C:Trad. Arr. by T. Tully
S:Jig
K:HP
|: {g}eA{d}A{g}ecd|
{g}eA{d}A{g}Aaf|
{g}eA{d}A{g}edc|  !
{g}Bge{g}dcd:| |:
{g}ea{g}aed{c}d|
{g}caf{g}ecd|  !
{g}eaf{g}edc|
{g}Bge{g}dcd:|
